X:1
T:Gnglt frn Skrsjdal
C:Ture Cederholm
R:Gnglt
Z:Patrik Mnsson, 2008-07-24
O:Knred, Smland
M:2/4
L:1/16
Q:1/4=100
K:G
D|: "G" G3D B,2D2 | G2A2 B2c2 | d4 g4 | B6 z d | "D" c3B c2A2 | F2D2 E2F2 |[1.3 "G" G4 B4 |D6 z2 :|[2.4 "G" G4 G4 | G6 z2 |] 
|: "C" e3c G2c2 | e2g2 f2e2 | "G" d3B G2B2 | d8 | "D" c3B c2A2 | F2D2 E2F2 |[1.3 "G" G4 B4 | d8 :|[2.4 "G" G4 G4 | G6 z2 |]
